X:1
T:The Well-Tempered Clavier Book I - VII
T:BWV 852    (A = 415 HZ)
T:J. S. Bach
%%score { ( 1 2 5 ) | ( 3 4 ) }
L:1/8
M:4/4
K:Eb
V:1 treble 
V:2 treble 
V:5 treble 
V:3 bass 
V:4 bass 
V:1
"^Praeludium" z4 _d4- | d/c/_d/e/ d/c/B/ A4- A/- | A z z2 a4- | a/f/g/a/ g/f/e/d/ e4- | %4
 e/ z/ z z2 c'4- | c'/=a/b/c'/ b/a/g/f/ b/a/g/f/ e/d/c/B/ | e4- e/e/f/g/ f/e/d/c/ | %7
 d/4c/4d/4e/4d/4c/4B/4=A/4 B/4A/4B/4c/4B/4_A/4G/4F/4 G/4F/4G/4A/4G/4F/4E/4D/4 E/4D/4E/4F/4E/4D/4C/4B,/4 | %8
 z/4 C/4D/4E/4F/4G/4=A/4B/4 c/4A/4F/4G/4A/4B/4c/4d/4 e-e/4f/8e/8d/4e/4 f/4e/4f/4e/4f/4e/4d/ | %9
 d2 z2 z4 | z8 | z2 B2 e4 | d2 e4 a2- | a2 g4 fe | d2 e4 d2 | =e2 f4 _e2 | d2 g4 f2- | f2 e4 d2- | %18
 d2 cB =A2 B2- | B2 e4 d2 | c4 B4 | A4 G4- | G2 FE D4 | E4- E2 DC | D2 z2 z4 | %25
 z4 z/ A/B/c/ B/A/G/F/ | G/e/f/g/ f/e/d/c/ Bc/d/ e/d/c/B/ | A/G/F/E/ AA A2 G2- | G2 =A2 Bc d2- | %29
 d2- d/d/c/B/ =AB/c/ d2- | d2- d/c/d/e/ f2 z2 | z/ f/g/a/ g/f/e/d/ e4- | e/-e/f/g/ f/e/d/c/ d4- | %33
 d2 c2- cB =A2 | G2 z2 F2 B2- | B2 A2 _d4- | d/B/c/_d/ c/B/A/G/ F4- | F2 =E2 F2 c2- | c2 =B2 e4- | %39
 e/e/f/g/ f/e/d/c/ =B/f/g/a/ g/f/e/d/ | c/=B/c/d/ e/4d/4e/4d/4e/4d/4c/ c2 z2 | %41
 z/ B/c/_d/ c/B/A/G/ FG/A/ B/A/G/F/ |[I:staff +1] E/D/C/B,/[I:staff -1] ee e2 d2 | g4- g2 f2 | %44
 =B2 cd e=efg | a4- a/a/b/c'/ b/a/g/f/ | e4 B4- | B2- B/A/B/c/ F2 F2 | E4 D2 z2 | %49
 A4- A/F/G/A/ G/F/E/D/ | C2- C/C/D/E/ F2- F/E/F/G/ | A4- AGAB | c2- c/e/d/c/ =Bc/d/ e/d/c/_B/ | %53
 A/G/F/E/ D/d/e/f/ =Bc/d/ c/_B/A/G/ | c4- cd =e2 | f/c/_d/e/ d/c/B/A/ G2 z2 | %56
 z/ a/b/c'/ b/a/g/f/ a/g/f/e/ a2- | a2 g2 ae a2- | a2 g2 c'4 | b2- b/b/a/g/ fg/a/ g/f/e/d/ | %60
 ef/g/ aa- a/g/a/b/ a/g/f/e/ | fg/a/ b/a/g/f/ e/d/c/B/ ee | e2 z/ d/e/f/ B4- | B2 A4 G2 | %64
 c4 B2 e2- | e2 d2 _g4 | f2 e4 d2 | e4 =d2 _d2- | d/B/c/_d/ c/B/c/A/ =d4 | !fermata!e8 | z8 | %71
"^Fuga" B/G/F/G/ E/A/G/A/ cB z =A/F/ | ed d/4c/4d/4c/4d/4c/4d/4c/4 B/f/d/B/ A/f/d/A/ | %73
 Gagf e/c/d/e/ f2- | f/e/f/g/ a/f/B/a/ ge/g/ c'2- | c'd/f/ b2- bc/e/ ag | f2 g=d e2- ef | %77
 g2- g=a b4- | b/b/g/e/ _d/b/g/d/ ce a2- | a/a/f/d/ c/a/f/c/ Bd g2- | g2- g/c/d/e/ f2- fe- | %81
 e/d/c/d/ B/e/d/e/ gf z d/B/ | ag f2 f/b/g/e/ _d/b/g/d/ | ca z A d/a/f/d/ c/a/f/c/ | %84
 =Bg z G c/g/=e/c/ _B/g/e/B/ | =A/g/c/G/ _A/f/d/A/ G/f/d/=B/ G/e/c/G/ | %86
 ^F/e/c/=A/ =F/d/=B/F/ =E/d/B/G/ _E/c/G/E/ | D/c/A/F/ D/=B/=A/B/ cfed | %88
 c/=A/=B/c/ d2- d/c/d/e/ f/d/G/f/ | e/g/e/d/ c/c'/a/f/ d/f/d/c/ B/b/g/e/ | %90
 c/e/c/B/ A/a/f/d/ =B2 c2- | c=B c/B/c/d/ ed=e^f | g/d/c/d/ B/=e/d/e/ gf z2 | %93
 f/c/B/c/ A/d/c/d/ fe z2 | z/ B/e/c/ _d2 z/ c/f/=d/ e2 | z/ d/g/e/ f2 z/ e/g/b/ a/f/_B/g/ | %96
 fagf e/c/d/e/ f2- | f/e/f/g/ a/f/B/a/ g/b/g/e/ _d2 | c/c'/a/f/ e2 d/f/d/B/ _A2- | %99
 A/G/F/G/ E/A/G/A/ cB z =A/F/ | ed d/4c/4d/4c/4d/4c/4d/4c/4 BfdB | b4- bec_A | a4- adBG | %103
 g2- g/c/d/e/ f/e/d/c/ B/A/B/c/ | F2 z F ed z2 | f e2 d e/g/e/c/ A2- | A/f/d/B/ Ge G2 F2 | %107
 !fermata!E8 |] %108
V:2
 z/ G/A/B/ A/G/F/E/- E4- | E z z2 f4- | f/d/e/f/ e/d/c/B/- B4- | B z z2 g4- | %4
 g/e/f/g/ f/e/d/c/- c4 | d/ z/ z z2 z4 | x8 | x8 | z4 c4 | F2 z2 z4 | z4 E2 A2- | A2 G4 F2- | %12
 F2 G4 c2 | B4 c4 | B4- B3 A | G2 c2 =B2 c_B | A2 B2 A4- | A2 G2 F2 GA | G4 F4- | %19
 F2 E/d/c/B/ =A2 B2- | B2 A4 G2- | G2 F4 E_D | C6 B,2- | B,2 A,2 B,4 | %24
 B,/B/c/d/ c/B/=A/G/ FG/A/ B/A/G/F/ | E/D/C/B,/ EE E2 D2 | E2 A,4 G,2 | C4 B,2- B,/C/D/E/ | %28
 E/D/C/B,/ EC F2 F/F/G/_A/ | G/F/E/D/ G2 F4- | F2 z2 z/ =A/B/c/ B/A/G/F/ | B4 B/B/c/d/ c/B/=A/G/ | %32
 =A4- ADGF | E4 D2 C2 | B,2 E4 D2 | G2 F2 F/F/G/A/ G/F/=E/F/ | =E4 z/ _E/_D/C/ B,2- | %37
 B,/B,/C/D/ C/B,/A,/G,/ A,2 z2 | z/ F/G/A/ G/F/E/D/ C/G/A/_B/ A/G/F/E/ | F4 D2 E2- | EAGF E2 A2- | %41
 A2 G2 c2 B2 | B8- | B4- B/B/c/_d/ c/B/A/G/ | F2 G_B c2 d_e | f/e/f/g/ f/e/d/c/ d4 | %46
 d/B/c/_d/ c/B/A/G/ FG/A/ B/A/G/F/ | E/D/C/B,/ EE E2 D2 | C4 z/ F/G/A/ G/F/E/D/ | x8 | %50
[I:staff +1] B,/G,/=A,/B,/ A,2- A,/A,/=B,/C/ B,2- | B,[I:staff -1]=B,CD E4- | E/E/F/G/ F2 G4 | %53
 z4 D2 G2 | G2 F2 B4- | BA _d2 d2 c2 | f4 e2- e/e/f/_g/ | f/e/_d/c/ B2 z/ B/c/d/ c/B/A/G/ | %58
 FG/A/ B/A/G/F/ EF/G/ AA | A/G/A/B/ c4 B2 | e4 d2 e2 | c2 z2 z2 z/ G/A/B/ | %62
 A/G/F/E/ F2 F/F/G/A/ G/F/E/_D/ | C2 F4 E2 | A6 G2 | F2 B4 A2 | d2 c2 B3 A | %67
 B/B/c/_d/ c/B/A/G/ FG/A/ B/A/G/F/ | E2 A2 A/A/B/_c/ B/A/G/A/4F/4 | x8 | x8 | x8 | x8 | %73
 E/D/C/D/ B,/E/D/E/ GF z D/B,/ | AG G/4F/4G/4F/4G/4F/4G/4F/4 E/B/G/F/ E/c/=A/F/ | %75
 D/=A/F/E/ _D/B/G/E/ C/G/E/C/ =D/_A/E/c/ | d_dcB A/G/A/B/ c2- | c/B/c/d/ e/c/F/e/ dfdB | %78
 e z z2 z ecA | d z z2 z dBG | cB A2- A/c/B/A/ G2 | F2 B2- BA/G/ AF | D e2 d f z[I:staff +1] E2- | %83
 E/E/C/A,/ G,/E/C/G,/ F,A, D2- | D/D/B,/G,/ G,/D/B,/G,/ F,G, C2- | C2 B,C[I:staff -1] D z z2 | x8 | %87
 z4[I:staff +1] C/_B,/_A,/B,/ G,/C/=B,/C/ | %88
 EC[I:staff -1] z[I:staff +1] =B,/G,/[I:staff -1] FE E/4D/4E/4D/4E/4D/4E/4D/4 | %89
 C/=B,/C/E/ A2- A_B,/D/ G2- | GA,/C/ F2- F/G/ A2 G | F/E/F/G/ =A2- A/G/A/_B/ c/A/D/c/ | %92
 B2 B2- B/c/B/A/ G/F/E/F/ | A2 A2- A/c/B/A/ G/F/E/F/ | %94
 G2 z/ B/G/E/[I:staff +1] A,[I:staff -1] z z/ c/=A/F/ | %95
[I:staff +1] B,[I:staff -1] z z/ d/=B/G/[I:staff +1] C[I:staff -1] z z2 | z feA BA/G/ A/d/B/F/ | %97
 D E2 D E z z/ B/G/E/ | %98
[I:staff +1] B,[I:staff -1] z z/ c/=A/F/[I:staff +1] B,[I:staff -1] z z/ F/D/B,/ | %99
[I:staff +1] E,_DCB, A,/G,/A,/B,/ C2 | C/A,/B,/C/ E/C/F,/E/[I:staff -1] D z z2 | %101
 z/ B/e/g/ _d/^A/d/g/ c z z2 | z/ A/d/f/ c/A/c/f/ B z z2 | z B A4 GE- | %104
 E/D/C/D/ B,/E/D/E/ _GF z D/B,/ | x8 | x8 | z/ D3/2 C>_C !fermata!B,4 |] %108
V:3
 z4 z/ G,/A,/B,/ A,/G,/F,/E,/ | A,4- A,/A,/B,/C/ B,/A,/G,/F,/ | D4- D/D/E/F/ E/D/C/B,/ | %3
 E4- E/E/F/G/ F/E/D/C/ | B,/C/D/E/ D/C/B,/A,/ G,/E,/F,/G,/ F,/E,/D,/C,/ | %5
 F,/C,/D,/E,/ D,/C,/B,,/=A,,/ D,/B,,/C,/D,/ C,/B,,/A,,/G,,/ | z/ E,/F,/G,/ F,/E,/D,/C,/ =A,4 | %7
 B,8 | =A,8 | B,2 E4 D2 | C4 B,2 C2 | D2 E2 _D2 C2 | B,4 E4 | F2 E4 A2- | A2 G2 F4 | C4 D2 E2 | %16
 FE D2 E2 F2 | B,4 B,4- | B,2 ED C2 DC | B,=A, B,2 C2 DE | F2- FE DB, E2- | E2 B,4- B,2- | %22
 B,2 A,G, F,2 G,F, | E,2- E,F, G,2 F,E, | F,2 E,4 D,2 | G,4 F,4 | E,3 F, G,F,E,D, | %27
 C,/E,/F,/G,/ F,/E,/D,/C,/ E,/D,/C,/B,,/ E,D, | C,2- C,/C,/D,/E,/ D,/C,/B,,/=A,,/ B,,B, | %29
 B,2 E4 D2 | z2 ED C2 D2- | D/D/E/F/ E/D/C/B,/ C4- | C4- C2 B,2- | %33
 B,/G,/=A,/B,/ A,/G,/^F,/G,/ F, G,2 F, | z/ G,/A,/B,/ A,/G,/F,/E,/ B,2 z2 | %35
 z/ B,/C/_D/ C/B,/A,/G,/ A,B,/C/ B,A, | G,2 A,4- A,/A,/G,/F,/ | G,4 F,2 z2 | D,2 G,4 E,2 | %39
 A,4 G,2 C2- | C3 =B, C2 z2 | B,2 E4 D2 |[I:staff -1] G4 F4- | %43
 F/[I:staff +1]B,/C/_D/ C/B,/A,/G,/ C4 |[I:staff -1] D2 EF GG AB | c2[I:staff +1] z2 z4 | %46
 E,2 A,4 G,2 | C4- C/=A,/B,/C/ B,/_A,/G,/F,/ | _G,2 F,2 F,2 z2 | %49
[I:staff -1] CD/E/ F/E/D/C/[I:staff +1] B,/A,/G,/F,/ B,B, | =E,2 F,_E, D,4 | %51
 D,/D,/E,/F,/ E,/D,/C,/=B,,/ C,/B,,/C,/D,/ C,/_B,,/A,,/G,,/ | C,2 F,4 E,2 | A,4 G,4 | %54
 z/ C/_D/E/ D/C/B,/A,/ G,4 | z2 z/ A,/B,/C/ B,/A,/G,/F,/ G, z | z8 | z2 z/ B,/C/_D/ C2 z2 | %58
 z/ D/E/F/ E2 z/ C/_D/E/ D/C/B,/A,/ | E4 D4 | z/ C/_D/E/ D/C/B,/A,/ B,4 | %61
 A,2 z/ F,/G,/A,/ B,2 z/ B,/C/_D/ | C/B,/A,/G,/ A,2- A,G,/F,/ G,2- | %63
 G,/E,/F,/G,/ F,/E,/D,/C,/ B,,/A,/B,/C/ B,/A,/G,/F,/ | E,2 z2 z4 | %65
 z/ C/D/E/ F/A/G/F/ E/F/E/D/ C/E/D/C/ |[I:staff -1] A2 G2 F4 |[I:staff +1] E,2 A,4 G,2 | C4 _C4 | %69
 B,8 | z8 | z8 | z8 | z8 | z8 | z8 | B,/G,/F,/G,/ E,/A,/G,/A,/ CB, z =A,/F,/ | %77
 ED D/4C/4D/4C/4D/4C/4D/4C/4 B,/F/D/B,/ A,/F/D/A,/ | G,E z E, A,/E/C/A,/ G,/E/C/G,/ | %79
 F,D z D, G,/D/B,/G,/ F,/_D/B,/G,/ | =E,/C/G,/E,/ F,/C/A,/F,/ D,/B,/F,/D,/ _E,/B,/G,/E,/ | %81
 B,,A,G,F, E,/C,/D,/E,/ F,2- | F,/E,/F,/G,/ A,/F,/B,,/A,/ G,B,G,E, | A, z z2 z A,F,D, | %84
 G, z4 G,=E,C, | F,E,D,C, =B,,G,,C,_B,, | =A,,=A,=B,G, CG,_A,E, | F,E,/F,/ G,G,, C, z z2 | z8 | %89
 z8 | z4 G,/E,/D,/E,/ C,/F,/E,/F,/ | A,G, z ^F,/D,/ CB, B,/4A,/4B,/4A,/4B,/4A,/4B,/4A,/4 | %92
 G,/B,/A,/B,/ G,/A,/F,/G,/ =E,/C/A,/F,/ C,/F,/C,/A,,/ | %93
 F,,/A,/G,/A,/ F,/G,/E,/F,/ D,/B,/G,/E,/ B,,/E,/B,,/G,,/ | E,,E,F,G, A,F,G,=A, | %95
 B,G,=A,=B, CC,D,E,- | E,/D,/C,/D,/ B,,/E,/D,/E,/ G,F, z D,/B,,/ | A,G, F,2 E,E,,F,,G,, | %98
 A,,F,,G,,=A,, B,,B,,C,D, | E,6- E,/D,/E,/F,/ | G,>F, E,F, B,,/F,/D,/B,,/ A,,/F,/D,/A,,/ | %101
 G,,G, z E,, A,,/E,/C,/A,,/ G,,/E,/C,/G,,/ | F,,F, z D,, G,,/D,/B,,/G,,/ F,,/D,/B,,/F,,/ | %103
 =E,,/C,/G,,/E,,/ F,,/C,/A,,/F,,/ D,,/B,,/F,,/D,,/ _E,,/B,,/G,,/E,,/ | %104
 B,,F,D,B,, =A,_A, z/ A,/F,/D,/ | B,,E,B,=B, C2- C/C/A,/F,/ | %106
 B,3[I:staff -1] F- F/D/E/B,/- B,/C/D/[I:staff +1]A,/ | %107
 B,/[I:staff -1]D/[I:staff +1]B,/G,/ G,/A,/F, !fermata!G,4 |] %108
V:4
 E,8- | E,8- | E,4 z4 | x8 | x8 | x8 | C,8 | B,,8- | B,,8- | B,,2 z2 F,2 B,2- | B,2 A,2 G,4 | %11
 F,2 E,4 A,2- | A,2 G,2 C4 | D2 z2 A,4 | B,8- | B,2 A,2 G,2 C2- | C2 B,2 C2 D2 | G,3 A, z2 B,,2 | %18
 E,6 D,2 | G,4 F,4- | F,4 G,2- G,/F,/E,/D,/ | C,2 D,2 E,2 E,/_D,/C,/B,,/ | A,,4 B,,4 | C,4 B,,4- | %24
 B,,2 z2 z4 | x8 | E,3 z z4 | x8 | x8 | E,4 z/ F,/G,/=A,/ B,/A,/G,/F,/ | %30
 E,/D,/C,/B,,/ E,E, E,2 D,2 | G,4- G,/G,/=A,/B,/ A,/G,/F,/E,/ | F,4 z/ ^F,/G,/=A,/ G,/=F,/E,/D,/ | %33
 C,4 D,4 | G,,2 z2 z/ D,/E,/F,/ E,/D,/C,/B,,/ | =E,2 F,4 B,,2 | C,4 _D,4 | x8 | G,,4 C,4 | %39
 F,6 E,2 | A,F, G,2 z/ C,/_D,/E,/ D,/C,/B,,/A,,/ | E,4 A,4 | %42
 G,2- G,/F,/G,/A,/ B,/A,/B,/C/ B,/A,/G,/F,/ | E,4 A,4 | %44
 A,/F,/G,/A,/ G,/F,/E,/D,/ C,/B,,/C,/_D,/ C,/B,,/A,,/G,,/ | F,,2 B,,4 G,,2 | C,4 D,B,,E,D, | %47
 C,3 B,, A,,2 B,,2 | B,,/=A,,/B,,/C,/ B,,/A,,/G,,/F,,/ B,,2 E,2- | E,2 D,2 G,2- G,F, | x8 | x8 | %52
 A,,4 z/ G,,/=A,,/=B,,/ C,2- | C,/C,/D,/E,/ F,F, F,2 E,2 | A,4 z/ =E,/F,/G,/ F,/E,/=D,/C,/ | %55
 F,6 E,/C,/_D,/E,/ | _D,/C,/B,,/A,,/ D,D, D,2 C,2 | _D,2 E,2 A,2 F,2 | B, z z2 z4 | x8 | %60
 z4 B,,2 E,2- | E,2 D,2 G,4- | G,2 z/ G,/F,/E,/ D,E,/F,/ E,/D,/C,/B,,/ | A,,4 D,,/ z/ z E,2 | %64
 z/ C,/_D,/E,/ D,/C,/B,,/A,,/ E,/=D,/C,/B,,/ A,/G,/F,/E,/ | B,8- | B,/F,/E,/D,/ E,/F,/G,/A,/ B,,4 | %67
 E,8- | E,8- | !fermata!E,8 | x8 | x8 | x8 | x8 | x8 | x8 | x8 | x8 | x8 | x8 | x8 | x8 | x8 | x8 | %84
 x8 | x8 | x8 | x8 | x8 | x8 | x8 | x8 | x8 | x8 | x8 | x8 | x8 | x8 | x8 | x8 | x8 | x8 | x8 | %103
 x8 | x8 | x8 | x8 | !fermata!E,,8 |] %108
V:5
 x8 | x8 | x8 | x8 | x8 | x8 | x8 | x8 | x8 | x8 | x8 | x8 | x8 | x8 | x8 | x8 | x8 | x8 | x8 | %19
 x8 | x8 | x8 | x8 | x8 | x8 | x8 | x8 | x8 | x8 | x8 | G4 z4 | x8 | x8 | x8 | x8 | x8 | x8 | x8 | %38
 x8 | x8 | x8 | x8 | x8 | x8 | x8 | x8 | x8 | x8 | x8 | x8 | x8 | x8 | x8 | x8 | x8 | x8 | x8 | %57
 x8 | x8 | x8 | x8 | x8 | x8 | x8 | x8 | x8 | x8 | x8 | x8 | x8 | x8 | x8 | x8 | x8 | x8 | x8 | %76
 x8 | x8 | x8 | x8 | x8 | x8 | x8 | x8 | x8 | x8 | x8 | x8 | x8 | x8 | x8 | x8 | x8 | x8 | x8 | %95
 x8 | x8 | x8 | x8 | x8 | x8 | x8 | x8 | x8 | x8 | x8 | x8 | x8 |] %108

